img/audience-icon-1.svg

<svg width="70" height="70" viewBox="0 0 70 70" fill="none" xmlns="http://www.w3.org/2000/svg">
<path d="M22.5 32.9167V53.75C22.5 57.1958 25.3042 60 28.75 60H53.75C57.1958 60 60 57.1958 60 53.75V32.9167H22.5ZM49.5833 43.3333C49.5833 47.9292 45.8458 51.6667 41.25 51.6667C36.6542 51.6667 32.9167 47.9292 32.9167 43.3333V39.1667H37.0833V43.3333C37.0833 45.6312 38.9521 47.5 41.25 47.5C43.5479 47.5 45.4167 45.6312 45.4167 43.3333V39.1667H49.5833V43.3333ZM18.3333 28.75H49.5833V20.4167H39.1667V19.375C39.1667 14.2062 34.9604 10 29.7917 10C24.6229 10 20.4167 14.2062 20.4167 19.375V20.4167H10V43.3333C10 46.7792 12.8042 49.5833 16.25 49.5833H18.3333V28.75ZM24.5833 19.375C24.5833 16.5021 26.9208 14.1667 29.7917 14.1667C32.6625 14.1667 35 16.5021 35 19.375V20.4167H24.5833V19.375Z" fill="#7D82B7"/>
</svg>

<svg width="70" height="70" fill="none" xmlns="http://www.w3.org/2000/svg"><path d="M22.5 32.917V53.75A6.258 6.258 0 0028.75 60h25A6.258 6.258 0 0060 53.75V32.917H22.5zm27.083 10.416c0 4.596-3.737 8.334-8.333 8.334s-8.333-3.738-8.333-8.334v-4.166h4.166v4.166A4.17 4.17 0 0041.25 47.5a4.17 4.17 0 004.167-4.167v-4.166h4.166v4.166zM18.333 28.75h31.25v-8.333H39.167v-1.042c0-5.169-4.207-9.375-9.375-9.375-5.17 0-9.375 4.206-9.375 9.375v1.042H10v22.916a6.258 6.258 0 006.25 6.25h2.083V28.75zm6.25-9.375a5.214 5.214 0 015.209-5.208A5.214 5.214 0 0135 19.375v1.042H24.583v-1.042z" fill="#7D82B7"/></svg>
